X:98
T:Fenwick O Bywell
Z:Jack Campin, http://www.campin.me.uk/
S:Northumbrian Minstrelsy
M:6/8
L:1/8
K:G
g|edc BAB|GBG  B2g|edc     BAG|AfA c2
g|edc BAB|GBG  B2G|c>de/f/ gdB|AgA c2:|
e|GGd BBg|GGd TB2g|GGd     BBg|AgA c2
e|GGd BBg|GGd  B2G|c>de/f/ gdB|AgA c2:|

